resources/haticons/SVG/flip.svg

<!-- Generated by IcoMoon.io -->
<svg version="1.1" xmlns="http://www.w3.org/2000/svg" width="24" height="24" viewBox="0 0 24 24">
<title>flip</title>
<path d="M18.984 21v-2.016h2.016q0 0.797-0.609 1.406t-1.406 0.609zM18.984 12.984v-1.969h2.016v1.969h-2.016zM15 5.016v-2.016h2.016v2.016h-2.016zM18.984 17.016v-2.016h2.016v2.016h-2.016zM11.016 23.016v-22.031h1.969v22.031h-1.969zM18.984 3q0.797 0 1.406 0.609t0.609 1.406h-2.016v-2.016zM3 5.016q0-0.797 0.609-1.406t1.406-0.609h3.984v2.016h-3.984v13.969h3.984v2.016h-3.984q-0.797 0-1.406-0.609t-0.609-1.406v-13.969zM18.984 9v-2.016h2.016v2.016h-2.016zM15 21v-2.016h2.016v2.016h-2.016z"></path>
</svg>

<svg xmlns="http://www.w3.org/2000/svg" width="24" height="24"><path d="M18.984 21v-2.016H21q0 .797-.609 1.406t-1.406.609zm0-8.016v-1.969H21v1.969h-2.016zM15 5.016V3h2.016v2.016H15zm3.984 12V15H21v2.016h-2.016zm-7.968 6V.985h1.969v22.031h-1.969zM18.984 3q.797 0 1.406.609t.609 1.406h-2.016V2.999zM3 5.016q0-.797.609-1.406t1.406-.609h3.984v2.016H5.015v13.969h3.984v2.016H5.015q-.797 0-1.406-.609T3 18.987V5.018zM18.984 9V6.984H21V9h-2.016zM15 21v-2.016h2.016V21H15z"/></svg>
